X:1060
T:Come By The Hills
C:Joe Buchanan's Scottish Tome - Page 643.2
I:643 2
Z:Carl Allison
R:Waltz
L:1/4
M:3/4
K:D
"D"F>E F | "Bm"E D B, | "F#m"A,2 A, | "G"B,<D E | "D"D3- | "D"D2 A, | "Bm"D>E F | "Em"(G F) E |
"Bm"F>E D | "Em"(B,>D) F | "Em"E3- | "A7"E2 (F/G/) | "D"(A F) E | "Bm"D>E F | "G"G A B | "D"(A F) D |
"Em"E3- | E2 ("A7"D/F/) | "D"F>E F | "Bm"(E D)>B, | "F#m"A,2 A, | "G"B,>D E | "D"D3- | D2 |]

